assets/icons/bowtie/1.22/NoUnicodePrefix/feedback-negative.svg

<svg xmlns="http://www.w3.org/2000/svg" viewBox="0 0 448 448" enable-background="new 0 0 448 448"><path d="M224 0c-123.711 0-224 100.285-224 224 0 123.713 100.289 224 224 224 123.713 0 224-100.287 224-224 0-123.715-100.287-224-224-224zm84 140c15.465 0 28 12.537 28 28 0 15.461-12.535 28-28 28-15.463 0-28-12.539-28-28 0-15.463 12.537-28 28-28zm-168 0c15.465 0 28 12.537 28 28 0 15.461-12.535 28-28 28-15.463 0-28-12.539-28-28 0-15.463 12.537-28 28-28zm173.688 211.563c-17.266-34.531-51.625-55.969-89.688-55.969-38.078 0-72.438 21.438-89.688 55.969l-28.625-14.313c22.703-45.438 68.031-73.656 118.313-73.656 50.266 0 95.594 28.219 118.313 73.656l-28.625 14.313z"/></svg>

<?xml version="1.0" encoding="utf-8"?>
<!-- Generator: Adobe Illustrator 19.2.0, SVG Export Plug-In . SVG Version: 6.00 Build 0)  -->
<svg version="1.1" xmlns="http://www.w3.org/2000/svg" xmlns:xlink="http://www.w3.org/1999/xlink" x="0px" y="0px"
	 viewBox="0 0 448 448" style="enable-background:new 0 0 448 448;" xml:space="preserve">
<path d="M224,0C100.289,0,0,100.285,0,224c0,123.713,100.289,224,224,224c123.713,0,224-100.287,224-224
	C448,100.285,347.713,0,224,0z M308,140c15.465,0,28,12.537,28,28c0,15.461-12.535,28-28,28c-15.463,0-28-12.539-28-28
	C280,152.537,292.537,140,308,140z M140,140c15.465,0,28,12.537,28,28c0,15.461-12.535,28-28,28c-15.463,0-28-12.539-28-28
	C112,152.537,124.537,140,140,140z M313.688,351.563c-17.266-34.531-51.625-55.969-89.688-55.969
	c-38.078,0-72.438,21.438-89.688,55.969l-28.625-14.313c22.703-45.438,68.031-73.656,118.313-73.656
	c50.266,0,95.594,28.219,118.313,73.656L313.688,351.563z"/>
<g>
</g>
<g>
</g>
<g>
</g>
<g>
</g>
<g>
</g>
<g>
</g>
</svg>
